X:1
T:Hillsdale, 87.87.87 D
T:John Robson Sweney, 1884
T:Hillsdale, 87.87.87 D
T:Public Domain
C:John Robson Sweney, 1884
Z:Public Domain
%%score ( 1 2 ) ( 3 4 )
L:1/8
M:3/4
K:C
V:1 treble 
V:2 treble 
V:3 bass 
V:4 bass 
V:1
 [CE][DF] | [EG]2 [Ge]2 [Ge][Fd] | [Ec]2 [EG]2 [EG][Ec] | [Ec][DB] [FG]2 [Fd]2 | [Ec]4 [CE][DF] | %5
 [EG]2 [Ge]2 [Ge][Fd] | [Ec]2 [EG]2 [EG][EG] | [D^F]3 [GB] [GB][FA] | G4 [DG][DG] | %9
 [DF]3 [FA] [EG][DF] | [DF]2 [CE]2 EE | A3 c BA | [^GB]4 [FA][F=G] | [EG]3 [Ge] [Gd][Gc] | %14
 [GB]2 [FA]2 [FA][FA] | [EG][Ec] [Dc]2 [FB]2 | [Ec]4 [Ec][Fd] | [Ec] [EB]2 z [GB][FA] | %18
 [FA] [EG]2 z [EG][FA] | [EG][DF] [DF]2 [B,G]2 | [CE]4 [CE][DF] | [EG]3 [Ge] [Gd][Gc] | %22
 [GB] [FA]3 [FA][FA] | [EG][Ec] [Dc]2 [FB]2 | [Ec]4 |] %25
V:2
 x2 | x6 | x6 | x6 | x6 | x6 | x6 | x6 | G4 x2 | x6 | x4 EE | A3 c BA | x6 | x6 | x6 | x6 | x6 | %17
 x6 | x6 | x6 | x6 | x6 | x6 | x6 | x4 |] %25
V:3
 [C,G,][C,G,] | [C,C]2 [C,C]2 [C,C][C,G,] | [C,G,]2 [C,C]2 [C,C][C,G,] | G,G, [G,B,]2 [G,,G,B,]2 | %4
 [C,C]4 [C,G,][C,G,] | [C,C]2 [C,C]2 [C,C][C,G,] | [C,G,]2 [C,C]2 [C,C][C,C] | %7
 [D,A,]3 [D,D] [D,D][D,C] | [G,B,]4 [G,B,][G,B,] | [G,B,]3 [G,,G,B,] [G,,G,B,][G,,G,B,] | %10
 [C,G,]2 [C,G,]2 E,E, | A,3 C B,A, | [E,E]4 [D,B,][D,B,] | [C,C]3 [C,C] [D,B,][E,C] | %14
 [F,C]2 [F,C]2 [F,C][F,C] | [G,C]G, [G,,G,]2 [G,,G,]2 | [C,G,]4 z2 | z2 [G,,G,][G,,G,] z2 | %18
 z2 [C,C][C,C] [C,C][C,C] | G,G, [G,,G,]2 [G,,G,]2 | [C,G,]4 [C,G,][C,G,] | %21
 [C,C]3 [C,C] [D,B,][E,C] | [F,C] [F,C]3 [F,C][F,C] | [G,C]G, [G,,G,]2 [G,,G,]2 | [C,G,]4 |] %25
V:4
 x2 | x6 | x6 | G,G, x4 | x6 | x6 | x6 | x6 | x6 | x6 | x4 E,E, | A,3 C B,A, | x6 | x6 | x6 | %15
 x G, x4 | x6 | x6 | x6 | G,G, x4 | x6 | x6 | x6 | x G, x4 | x4 |] %25

